svgs/duotone/arrow-right-from-bracket.svg

<svg xmlns="http://www.w3.org/2000/svg" viewBox="0 0 512 512"><!-- Font Awesome Pro 6.0.0-alpha2 by @fontawesome - https://fontawesome.com License - https://fontawesome.com/license (Commercial License) --><defs><style>.fa-secondary{opacity:.4}</style></defs><path d="M160 416H96C78.326 416 64 401.672 64 384V128C64 110.328 78.326 96 96 96H160C177.674 96 192 81.672 192 64S177.674 32 160 32H96C42.98 32 0 74.98 0 128V384C0 437.02 42.98 480 96 480H160C177.674 480 192 465.672 192 448S177.674 416 160 416Z" class="fa-secondary"/><path d="M502.625 278.625L374.625 406.625C362.125 419.125 341.875 419.125 329.375 406.625S316.875 373.875 329.375 361.375L402.75 288H192C174.312 288 160 273.688 160 256S174.312 224 192 224H402.75L329.375 150.625C316.875 138.125 316.875 117.875 329.375 105.375C341.867 92.883 362.117 92.867 374.625 105.375L502.625 233.375C515.125 245.875 515.125 266.125 502.625 278.625Z" class="fa-primary"/></svg>

<svg xmlns="http://www.w3.org/2000/svg" viewBox="0 0 512 512"><!--! Font Awesome Pro 6.3.0 by @fontawesome - https://fontawesome.com License - https://fontawesome.com/license (Commercial License) Copyright 2023 Fonticons, Inc. --><defs><style>.fa-secondary{opacity:.4}</style></defs><path class="fa-primary" d="M502.6 278.6l-128 128c-12.5 12.5-32.75 12.5-45.25 0s-12.5-32.75 0-45.25L402.8 288H192C174.3 288 160 273.7 160 256s14.31-32 32-32h210.8l-73.38-73.38c-12.5-12.5-12.5-32.75 0-45.25c12.49-12.49 32.74-12.51 45.25 0l128 128C515.1 245.9 515.1 266.1 502.6 278.6z"/><path class="fa-secondary" d="M160 416H96c-17.67 0-32-14.33-32-32V128c0-17.67 14.33-32 32-32h64c17.67 0 32-14.33 32-32S177.7 32 160 32H96C42.98 32 0 74.98 0 128v256c0 53.02 42.98 96 96 96h64c17.67 0 32-14.33 32-32S177.7 416 160 416z"/></svg>
